X: 507
T:Early Morning Jig
R:jig
C:Emer Mayock?
Z:Gerry Strong
M:6/8
L:1/8
N:Posted to the woodenflute mailing list April 2002
K:Em
Bee cee|~a3 gfe|Bee cee|agf edc|Bee cee|~a3 gfe|g2 e dBf|1dBf ded:|2dBf g2 a|
|:b2 d ded|cea fga|bdd ded|cdf gfd|b2 d ded|cea fga|1gfe dBf|dBf g2 a:|2gfe
def|agf edc|
<end>
<start>
